raw-svg/video.svg

<svg viewBox="0 0 24 24" xmlns="http://www.w3.org/2000/svg"><path d="m13 18.75h-7a2.75 2.75 0 0 1 -2.75-2.75v-8a2.75 2.75 0 0 1 2.75-2.75h7a2.75 2.75 0 0 1 2.75 2.75v8a2.75 2.75 0 0 1 -2.75 2.75zm-7-12a1.25 1.25 0 0 0 -1.25 1.25v8a1.25 1.25 0 0 0 1.25 1.25h7a1.25 1.25 0 0 0 1.25-1.25v-8a1.25 1.25 0 0 0 -1.25-1.25z"/><path d="m20 16.75a.79.79 0 0 1 -.39-.11l-5-3a.75.75 0 0 1 -.36-.64v-2a.75.75 0 0 1 .36-.64l5-3a.74.74 0 0 1 .76 0 .75.75 0 0 1 .38.65v8a.75.75 0 0 1 -.38.65.71.71 0 0 1 -.37.09zm-4.25-4.17 3.5 2.1v-5.36l-3.5 2.1z"/></svg>

<svg xmlns="http://www.w3.org/2000/svg" viewBox="0 0 24 24"><g id="video"><path d="M13,18.75H6A2.75,2.75,0,0,1,3.25,16V8A2.75,2.75,0,0,1,6,5.25h7A2.75,2.75,0,0,1,15.75,8v8A2.75,2.75,0,0,1,13,18.75Zm-7-12A1.25,1.25,0,0,0,4.75,8v8A1.25,1.25,0,0,0,6,17.25h7A1.25,1.25,0,0,0,14.25,16V8A1.25,1.25,0,0,0,13,6.75Z"/><g id="_Path_" data-name="&lt;Path&gt;"><path d="M20,16.75a.79.79,0,0,1-.39-.11l-5-3a.75.75,0,0,1-.36-.64V11a.75.75,0,0,1,.36-.64l5-3a.74.74,0,0,1,.76,0,.75.75,0,0,1,.38.65v8a.75.75,0,0,1-.38.65A.71.71,0,0,1,20,16.75Zm-4.25-4.17,3.5,2.1V9.32l-3.5,2.1Z"/></g></g></svg>
